packages/core/src/svgs/reef.svg

<svg width="24" height="24" viewBox="0 0 24 24" fill="none" xmlns="http://www.w3.org/2000/svg">
<g clip-path="url(#clip0_31_16967)">
<path d="M0 0H24V24H0V0Z" fill="#5431A9"/>
<path d="M6.21432 12.2659C6.23428 12.2676 6.25436 12.2676 6.27432 12.2659H6.33861C6.60861 12.2659 6.86575 12.2144 7.10146 12.0944C7.33624 11.9822 7.55062 11.8316 7.73575 11.6487C7.92003 11.4687 8.06146 11.2673 8.16432 11.0487C8.26718 10.8259 8.31861 10.6116 8.31861 10.4059C8.31861 10.2559 8.29289 10.1144 8.23289 9.9773C8.17878 9.84236 8.09187 9.72304 7.98004 9.63015C7.84867 9.52265 7.69712 9.4425 7.53432 9.39444C7.08141 9.28295 6.60858 9.28001 6.15432 9.38587C5.94861 9.4373 5.77289 9.50587 5.62289 9.5873C5.47718 9.67301 5.35289 9.7673 5.25003 9.87873C5.06431 10.0762 4.91098 10.3019 4.79575 10.5473C4.73575 10.6587 4.67146 10.753 4.60718 10.8387C4.54718 10.9244 4.47861 10.9887 4.39718 11.0444C4.32004 11.0959 4.22575 11.1216 4.11003 11.1216C3.95575 11.1216 3.83575 11.083 3.75861 11.0059C3.6773 10.9142 3.63568 10.7939 3.64289 10.6716C3.64289 10.5387 3.67718 10.393 3.75003 10.2344C3.83368 10.0672 3.93885 9.91155 4.06289 9.77158C4.38697 9.41741 4.78098 9.13431 5.22004 8.94015C6.04596 8.57013 6.97086 8.48276 7.85146 8.69158C8.14289 8.7773 8.40004 8.89301 8.62289 9.05587C8.94473 9.28122 9.18059 9.60909 9.29192 9.98588C9.40324 10.3627 9.38344 10.7661 9.23575 11.1302C9.15861 11.3273 9.05146 11.5159 8.91861 11.6873C8.78575 11.8587 8.62718 12.0173 8.44718 12.1587C8.09079 12.4509 7.68615 12.6786 7.25146 12.8316C7.03718 12.9087 6.83575 12.9602 6.63861 12.9987C6.71247 13.3518 6.83659 13.6924 7.00718 14.0102C7.09718 14.173 7.20003 14.3102 7.31146 14.4259C7.36494 14.4865 7.43097 14.5348 7.50498 14.5674C7.57899 14.5999 7.65919 14.616 7.74003 14.6144H7.80432C8.03146 14.6144 8.23289 14.5802 8.40861 14.503C8.72374 14.3726 9.00086 14.1647 9.21432 13.8987C9.31289 13.7873 9.41146 13.7359 9.51003 13.7359C9.53946 13.7351 9.56873 13.7404 9.59602 13.7515C9.6233 13.7626 9.64801 13.7791 9.66861 13.8002C9.71146 13.843 9.73289 13.903 9.73289 13.9759C9.73289 14.0487 9.71146 14.1344 9.66432 14.2287C9.62146 14.323 9.54432 14.4216 9.43718 14.5244C9.16095 14.7943 8.84246 15.0173 8.49432 15.1844C8.19003 15.3216 7.89861 15.3902 7.62432 15.3902C7.40146 15.3902 7.19575 15.3259 7.00718 15.1973C6.81432 15.0687 6.64289 14.8973 6.48861 14.683C6.33432 14.4644 6.18861 14.2116 6.06004 13.9202C5.93575 13.6287 5.82432 13.3202 5.72146 12.9987C5.66575 13.1273 5.61003 13.2773 5.55003 13.4487C5.42327 13.812 5.28751 14.1721 5.14289 14.5287C5.07003 14.7044 4.98861 14.863 4.89861 15.0087C4.80861 15.1459 4.71003 15.2616 4.60718 15.3516C4.50432 15.4373 4.39289 15.4802 4.27289 15.4802C4.17432 15.4802 4.09289 15.463 4.02861 15.433C3.97296 15.4062 3.92449 15.3665 3.88718 15.3173C3.85219 15.2711 3.82604 15.2187 3.81004 15.163C3.77896 15.0374 3.78192 14.9057 3.81861 14.7816C3.84003 14.7087 3.86146 14.6402 3.90004 14.5759L5.27146 12.0559C5.39146 11.8416 5.51146 11.6402 5.63146 11.443C5.75146 11.2459 5.86718 11.0702 5.97861 10.9159C6.09432 10.7659 6.20146 10.6459 6.30003 10.5516C6.40289 10.4616 6.49718 10.4144 6.57432 10.4144C6.60003 10.4144 6.62575 10.4144 6.65575 10.4273C6.68575 10.4359 6.71575 10.4487 6.74146 10.4702C6.76289 10.4873 6.78432 10.5173 6.80575 10.5559C6.82289 10.5987 6.83146 10.6416 6.83146 10.7016C6.83146 10.7616 6.81432 10.843 6.78003 10.9502C6.61489 11.3984 6.42605 11.8376 6.21432 12.2659ZM12.0772 12.5487C12.0629 12.5473 12.0486 12.5473 12.0343 12.5487H11.9915C11.8757 12.5487 11.7643 12.5702 11.6615 12.613C11.5586 12.6602 11.4643 12.7244 11.3786 12.8016C11.2929 12.8744 11.2157 12.9602 11.1472 13.0587C10.9862 13.302 10.8552 13.5639 10.7572 13.8387C11.1313 13.6254 11.4973 13.3981 11.8543 13.1573C11.9915 13.0716 12.09 12.9859 12.1415 12.913C12.1878 12.8553 12.2161 12.7853 12.2229 12.7116C12.2229 12.6687 12.2057 12.6259 12.1757 12.6002C12.1493 12.5728 12.1147 12.5547 12.0772 12.5487ZM12.2443 11.9059C12.5015 11.9059 12.6943 11.9702 12.8229 12.0944C12.9515 12.2187 13.0115 12.3902 13.0115 12.6087C13.0115 12.7373 12.9815 12.8787 12.9129 13.0202C12.8443 13.1659 12.7243 13.3116 12.5572 13.4573C12.3857 13.6073 12.1629 13.7573 11.88 13.9116C11.6015 14.0659 11.25 14.2159 10.8257 14.3744C10.8429 14.4602 10.89 14.533 10.9715 14.5887C11.0529 14.6359 11.16 14.6616 11.2929 14.6616C11.4343 14.6616 11.5886 14.6402 11.7515 14.6016C11.9143 14.5587 12.0772 14.503 12.2357 14.4387C12.6494 14.273 13.0468 14.0693 13.4229 13.8302C13.5016 13.7835 13.5832 13.742 13.6672 13.7059L13.7315 13.7016C13.77 13.7016 13.8 13.7102 13.8257 13.7316C13.8515 13.7444 13.8686 13.7659 13.8857 13.7916C13.9029 13.813 13.9157 13.8344 13.9243 13.8644L13.9329 13.9287C13.9329 13.9587 13.9329 13.993 13.9243 14.0316C13.9111 14.0798 13.8861 14.124 13.8515 14.1602C13.5479 14.4179 13.2174 14.642 12.8657 14.8287C12.4752 15.0433 12.061 15.2115 11.6315 15.3302C11.4086 15.3902 11.19 15.4159 10.9715 15.4159C10.7829 15.4159 10.62 15.3816 10.47 15.3087C10.3275 15.2381 10.201 15.1389 10.0985 15.0172C9.99598 14.8956 9.91967 14.7541 9.87432 14.6016C9.76609 14.2981 9.76609 13.9665 9.87432 13.663C9.92575 13.5044 10.0029 13.3416 10.1015 13.1787C10.3219 12.8274 10.614 12.5266 10.9586 12.2959C11.3364 12.0357 11.7857 11.8994 12.2443 11.9059ZM15.36 12.5487C15.3458 12.5473 15.3314 12.5473 15.3172 12.5487H15.2743C15.1586 12.5487 15.0472 12.5702 14.9443 12.613C14.8415 12.6602 14.7472 12.7244 14.6615 12.8016C14.5757 12.8744 14.4986 12.9602 14.43 13.0587C14.2692 13.3021 14.1382 13.564 14.04 13.8387C14.4141 13.6253 14.7801 13.398 15.1372 13.1573C15.2743 13.0716 15.3729 12.9859 15.4243 12.913C15.4706 12.8553 15.499 12.7853 15.5057 12.7116C15.5057 12.6687 15.4886 12.6259 15.4586 12.6002C15.4322 12.5728 15.3976 12.5547 15.36 12.5487ZM15.5272 11.9059C15.7843 11.9059 15.9772 11.9702 16.1057 12.0944C16.2343 12.2187 16.2986 12.3902 16.2986 12.6087C16.2986 12.7373 16.2643 12.8787 16.1957 13.0202C16.1272 13.1659 16.0072 13.3116 15.84 13.4573C15.6686 13.6073 15.4457 13.7573 15.1629 13.9116C14.8843 14.0659 14.5329 14.2159 14.1086 14.3744C14.1257 14.4602 14.1729 14.533 14.2543 14.5887C14.3357 14.6359 14.4429 14.6616 14.5757 14.6616C14.7172 14.6616 14.8715 14.6402 15.0343 14.6016C15.1972 14.5587 15.36 14.503 15.5186 14.4387C15.9323 14.273 16.3297 14.0693 16.7057 13.8302C16.7844 13.7835 16.866 13.742 16.95 13.7059L17.0143 13.7016C17.0529 13.7016 17.0829 13.7102 17.1086 13.7316C17.1343 13.7444 17.1515 13.7659 17.1686 13.7916C17.1857 13.813 17.1986 13.8344 17.2072 13.8644L17.2157 13.9287C17.2157 13.9587 17.2157 13.993 17.2072 14.0316C17.194 14.0798 17.1689 14.124 17.1343 14.1602C16.8309 14.418 16.5004 14.6422 16.1486 14.8287C15.7581 15.0433 15.3438 15.2116 14.9143 15.3302C14.6915 15.3902 14.4729 15.4159 14.2543 15.4159C14.0657 15.4159 13.9029 15.3816 13.7572 15.3087C13.6137 15.2388 13.4862 15.1399 13.3829 15.0181C13.2797 14.8964 13.2028 14.7546 13.1572 14.6016C13.0486 14.2981 13.0486 13.9664 13.1572 13.663C13.371 13.1088 13.7475 12.6322 14.2372 12.2959C14.4215 12.1802 14.6186 12.0816 14.8329 12.013C15.0472 11.9402 15.2829 11.9059 15.5272 11.9059ZM19.9715 12.5873C19.6773 12.5993 19.383 12.6064 19.0886 12.6087H18.2786L17.9657 13.2302L17.6486 13.8902C17.2794 14.6691 16.9094 15.4477 16.5386 16.2259C16.5043 16.2944 16.4615 16.363 16.41 16.4187C16.3672 16.483 16.3115 16.5344 16.2515 16.5773C16.1481 16.6555 16.0248 16.703 15.8957 16.7144C15.8246 16.7157 15.7547 16.6963 15.6943 16.6587C15.6343 16.6202 15.6086 16.5602 15.6086 16.483C15.6086 16.4402 15.6172 16.393 15.6343 16.3373C15.6515 16.2859 15.6772 16.2216 15.7157 16.1487L17.3957 12.5959H17.1515C16.6115 12.5959 16.6072 12.0002 17.1686 12.0002H17.7172C17.94 11.5544 18.12 11.263 18.3386 10.9716C18.5297 10.7168 18.7513 10.4865 18.9986 10.2859C19.34 10.0029 19.7681 9.84553 20.2115 9.84015C20.2974 9.84042 20.3823 9.85889 20.4606 9.89434C20.5389 9.9298 20.6088 9.98144 20.6657 10.0459C20.73 10.1144 20.7772 10.2002 20.8157 10.303C20.8543 10.4102 20.8715 10.5302 20.8715 10.6716C20.8715 10.8002 20.8543 10.9502 20.8157 11.113C20.8073 11.1544 20.7881 11.1928 20.76 11.2244C20.7042 11.2769 20.6366 11.3151 20.5629 11.3359C20.5286 11.3444 20.4986 11.3444 20.4772 11.3444C20.4174 11.3444 20.3585 11.3297 20.3057 11.3016C20.2799 11.2893 20.258 11.2699 20.2428 11.2456C20.2276 11.2212 20.2197 11.1931 20.22 11.1644C20.2195 11.0926 20.2252 11.0209 20.2372 10.9502C20.2372 10.8216 20.2115 10.7273 20.1643 10.6716C20.141 10.6433 20.1115 10.6208 20.078 10.6059C20.0445 10.5911 20.0081 10.5842 19.9715 10.5859C19.8772 10.5859 19.7615 10.6287 19.6286 10.7144C19.5 10.8002 19.3715 10.9073 19.2429 11.0487C19.1017 11.1982 18.9728 11.3587 18.8572 11.5287C18.7372 11.7044 18.6857 11.8116 18.6043 12.0002H19.6929L19.9629 12.0044C20.0486 12.0044 20.1172 12.0173 20.1815 12.0344C20.4643 12.0987 20.43 12.4459 20.1729 12.5487C20.1215 12.5702 20.0529 12.5787 19.9672 12.5873H19.9715Z" fill="white"/>
<path d="M18.1671 15.7244C18.515 15.7244 18.7971 15.4423 18.7971 15.0944C18.7971 14.7464 18.515 14.4644 18.1671 14.4644C17.8192 14.4644 17.5371 14.7464 17.5371 15.0944C17.5371 15.4423 17.8192 15.7244 18.1671 15.7244Z" fill="#D24D99"/>
</g>
<defs>
<clipPath id="clip0_31_16967">
<rect width="24" height="24" fill="white"/>
</clipPath>
</defs>
</svg>

<svg xmlns="http://www.w3.org/2000/svg" width="24" height="24" fill="none" viewBox="0 0 24 24"><g clip-path="url(#a)"><path fill="#5431A9" d="M0 0h24v24H0z"/><path fill="#fff" d="M6.214 12.266q.03.003.06 0h.065c.27 0 .527-.052.762-.172.235-.112.45-.262.635-.445a2.1 2.1 0 0 0 .428-.6q.155-.334.155-.643c0-.15-.026-.292-.086-.429a.9.9 0 0 0-.253-.347 1.3 1.3 0 0 0-.446-.236 2.96 2.96 0 0 0-1.38-.008q-.307.078-.531.201c-.146.086-.27.18-.373.292a2.6 2.6 0 0 0-.454.668c-.06.112-.125.206-.189.292a.8.8 0 0 1-.21.205.5.5 0 0 1-.287.078c-.154 0-.274-.039-.351-.116a.46.46 0 0 1-.116-.334q-.001-.2.107-.438.126-.251.313-.462A3.5 3.5 0 0 1 5.22 8.94a4.1 4.1 0 0 1 2.631-.248c.292.085.549.201.772.364a1.736 1.736 0 0 1 .613 2.074 2.3 2.3 0 0 1-.317.557q-.2.258-.472.472a4.111 4.111 0 0 1-1.809.84c.074.353.199.693.37 1.011q.136.243.303.416a.56.56 0 0 0 .429.188h.064c.227 0 .429-.034.605-.111.315-.13.592-.338.805-.604.099-.112.197-.163.296-.163a.21.21 0 0 1 .159.064.24.24 0 0 1 .064.176.6.6 0 0 1-.069.253q-.065.142-.227.295c-.276.27-.595.493-.943.66a2.1 2.1 0 0 1-.87.206q-.334 0-.617-.193a2 2 0 0 1-.518-.514 4.4 4.4 0 0 1-.429-.763A11 11 0 0 1 5.721 13a7 7 0 0 0-.171.45q-.19.544-.407 1.08a3.4 3.4 0 0 1-.244.48q-.136.207-.292.343a.5.5 0 0 1-.334.128.6.6 0 0 1-.244-.047.4.4 0 0 1-.142-.116.5.5 0 0 1-.077-.154.73.73 0 0 1 .009-.381.9.9 0 0 1 .081-.206l1.371-2.52q.18-.32.36-.613.18-.296.348-.527.173-.224.321-.364c.103-.09.197-.138.274-.138.026 0 .052 0 .082.013a.2.2 0 0 1 .085.043.3.3 0 0 1 .065.086.4.4 0 0 1 .025.146q0 .089-.051.248-.248.673-.566 1.316m5.863.283a.2.2 0 0 0-.043 0h-.043a.9.9 0 0 0-.33.064 1.1 1.1 0 0 0-.282.189 1.3 1.3 0 0 0-.232.257 3.6 3.6 0 0 0-.39.78q.561-.32 1.097-.682c.138-.085.236-.171.288-.244a.4.4 0 0 0 .08-.201.15.15 0 0 0-.046-.112.18.18 0 0 0-.099-.051m.167-.643q.386.001.579.188.19.187.188.515c0 .128-.03.27-.098.411a1.4 1.4 0 0 1-.356.437q-.255.224-.677.455c-.279.154-.63.304-1.054.462a.33.33 0 0 0 .146.215.64.64 0 0 0 .32.073q.214-.002.46-.06.244-.066.484-.163.62-.25 1.187-.609.118-.07.244-.124l.065-.004q.056-.002.094.03a.16.16 0 0 1 .06.06c.017.021.03.042.038.072l.009.065c0 .03 0 .064-.009.103a.3.3 0 0 1-.072.128 5.5 5.5 0 0 1-.986.669c-.39.214-.805.382-1.234.501-.223.06-.442.086-.66.086-.19 0-.352-.034-.502-.107a1.16 1.16 0 0 1-.596-.707 1.4 1.4 0 0 1 0-.939q.079-.239.227-.484c.22-.352.513-.652.858-.883.377-.26.827-.397 1.285-.39m3.116.643a.2.2 0 0 0-.043 0h-.043a.9.9 0 0 0-.33.064 1.1 1.1 0 0 0-.283.189 1.3 1.3 0 0 0-.231.257q-.241.366-.39.78.561-.32 1.097-.682c.137-.085.236-.171.287-.244a.4.4 0 0 0 .082-.201.15.15 0 0 0-.047-.112.18.18 0 0 0-.099-.051m.167-.643q.386.001.579.188t.193.515c0 .128-.035.27-.103.411a1.4 1.4 0 0 1-.356.437q-.254.224-.677.455c-.279.154-.63.304-1.054.462a.33.33 0 0 0 .145.215.64.64 0 0 0 .322.073q.213-.002.458-.06.245-.066.485-.163.62-.25 1.187-.609.117-.07.244-.124l.064-.004q.057-.002.095.03a.16.16 0 0 1 .06.06c.017.021.03.042.038.072l.009.065c0 .03 0 .064-.009.103a.3.3 0 0 1-.073.128 5.5 5.5 0 0 1-.985.669 5.7 5.7 0 0 1-1.235.501c-.223.06-.441.086-.66.086-.188 0-.351-.034-.497-.107a1.15 1.15 0 0 1-.6-.707 1.4 1.4 0 0 1 0-.939c.214-.554.59-1.03 1.08-1.367.184-.116.382-.214.596-.283.214-.073.45-.107.694-.107m4.445.681a27 27 0 0 1-.883.022h-.81l-.313.621-.317.66-1.11 2.336a.8.8 0 0 1-.129.193.6.6 0 0 1-.159.158.7.7 0 0 1-.355.137.37.37 0 0 1-.202-.055c-.06-.039-.085-.099-.085-.176a.5.5 0 0 1 .025-.146q.025-.077.082-.188l1.68-3.553h-.245c-.54 0-.544-.596.018-.596h.548c.223-.446.403-.737.622-1.028q.287-.384.66-.686c.341-.283.77-.44 1.213-.446a.6.6 0 0 1 .454.206.8.8 0 0 1 .15.257c.038.107.056.227.056.369 0 .128-.018.278-.056.441a.24.24 0 0 1-.056.111.5.5 0 0 1-.197.112q-.052.01-.086.008a.4.4 0 0 1-.171-.042.15.15 0 0 1-.086-.138q0-.107.017-.214 0-.194-.073-.278a.24.24 0 0 0-.193-.086q-.143 0-.342.128a2 2 0 0 0-.386.335q-.212.225-.386.48c-.12.175-.171.283-.253.471h1.089l.27.004c.086 0 .154.013.218.03.283.065.249.412-.008.515a.8.8 0 0 1-.206.038z"/><path fill="#D24D99" d="M18.167 15.724a.63.63 0 1 0 0-1.26.63.63 0 0 0 0 1.26"/></g><defs><clipPath id="a"><path fill="#fff" d="M0 0h24v24H0z"/></clipPath></defs></svg>
